X:0015
T:Bung Your Eye.
M:6/8
L:1/8
Q:3/8=120
I: :: ::
%% E  G ^G  A  B  c  d  e  g ^g  a
Z:Jack Campin * www.campin.me.uk * 2009
K:A Minor
E|ABA c2d|edc B2A |GAG B2c |dge dBG|
  ABA c2d|edc Bcd |e2A BA^G|A3  A2:|
G|cde g2a|gec gec |GAG B2c |dge dBG|
  cde g2a|gec de^g|a2A BA^G|A3  A2:|
<end>
<start>
